Sources/FrostedUI/Resources/Icons.xcassets/illuminati32.imageset/illuminati-32.svg

<svg width="32" height="32" viewBox="0 0 32 32" fill="none" xmlns="http://www.w3.org/2000/svg" data-fui-icon="true">
  <path
    d="M14.0649 3.09033C14.9368 1.62183 17.0623 1.62184 17.9341 3.09033L31.2993 25.6021C32.189 27.1017 31.1085 29.0002 29.3647 29.0005H2.63428C0.890316 29.0003 -0.19026 27.1018 0.699707 25.6021L14.0649 3.09033ZM25.7905 19.2612C24.6691 20.9476 21.4211 25.0002 15.9995 25.0005C10.5774 25.0003 7.32866 20.9475 6.20752 19.2612L1.98975 26.3677C1.6932 26.8675 2.05307 27.5003 2.63428 27.5005H29.3647C29.9457 27.5002 30.3056 26.8674 30.0093 26.3677L25.7905 19.2612ZM20.2456 13.6226C20.567 14.2627 20.7495 14.9854 20.7495 15.7505C20.7492 18.3735 18.6226 20.5004 15.9995 20.5005C13.3763 20.5005 11.2498 18.3736 11.2495 15.7505C11.2495 14.9856 11.4303 14.2626 11.7515 13.6226C11.0854 13.9938 10.4875 14.43 9.95752 14.8901C8.5393 16.1214 7.6382 17.4943 7.26318 18.1304C8.06701 19.4307 10.9976 23.5003 15.9995 23.5005C21.0014 23.5002 23.9321 19.4306 24.7358 18.1304C24.3607 17.4942 23.4593 16.1211 22.0415 14.8901C21.5113 14.4298 20.9119 13.9939 20.2456 13.6226ZM15.8188 12.5044C14.1078 12.598 12.7495 14.0161 12.7495 15.7505C12.7498 17.5452 14.2047 19.0005 15.9995 19.0005C17.7942 19.0004 19.2492 17.5451 19.2495 15.7505C19.2495 14.0156 17.8899 12.5973 16.1782 12.5044C16.1189 12.5032 16.0594 12.5005 15.9995 12.5005C15.9391 12.5005 15.8786 12.5032 15.8188 12.5044ZM16.644 3.85596C16.3534 3.36646 15.6456 3.36646 15.355 3.85596L9.91748 13.0132C11.486 11.8915 13.5155 11.0006 15.9995 11.0005L16.2798 11.0034C18.6363 11.0675 20.5714 11.9341 22.0806 13.0132L16.644 3.85596Z"
    fill="currentColor"
  />
</svg>

<svg xmlns="http://www.w3.org/2000/svg" width="32" height="32" fill="none" data-fui-icon="true" viewBox="0 0 32 32"><path fill="currentColor" d="M14.065 3.09c.872-1.468 2.997-1.468 3.87 0l13.364 22.512c.89 1.5-.19 3.398-1.934 3.398H2.635C.89 29-.19 27.103.7 25.603zM25.79 19.261c-1.122 1.687-4.37 5.74-9.792 5.74s-8.67-4.053-9.791-5.74L1.99 26.368a.75.75 0 0 0 .644 1.133h26.73a.75.75 0 0 0 .645-1.133zm-5.545-5.638a4.75 4.75 0 1 1-8.494 0c-.667.37-1.264.807-1.794 1.267a13.6 13.6 0 0 0-2.695 3.24c.804 1.3 3.735 5.37 8.737 5.37 5.001 0 7.932-4.07 8.736-5.37a13.6 13.6 0 0 0-2.695-3.24c-.53-.46-1.13-.896-1.795-1.267m-4.427-1.119a3.25 3.25 0 1 0 .36 0l-.18-.003zm.825-8.648a.75.75 0 0 0-1.289 0l-5.438 9.157c1.569-1.121 3.598-2.012 6.083-2.012l.28.002c2.356.065 4.291.931 5.8 2.01z"/></svg>
